src/assets/outline/ArrowCircleLeft.svg

<svg width="24" height="24" viewBox="0 0 24 24"  xmlns="http://www.w3.org/2000/svg">
<path d="M12 22.75C6.07 22.75 1.25 17.93 1.25 12C1.25 6.07 6.07 1.25 12 1.25C17.93 1.25 22.75 6.07 22.75 12C22.75 17.93 17.93 22.75 12 22.75ZM12 2.75C6.9 2.75 2.75 6.9 2.75 12C2.75 17.1 6.9 21.25 12 21.25C17.1 21.25 21.25 17.1 21.25 12C21.25 6.9 17.1 2.75 12 2.75Z" />
<path d="M13.2599 16.2799C13.0699 16.2799 12.8799 16.2099 12.7299 16.0599L9.19992 12.5299C8.90992 12.2399 8.90992 11.7599 9.19992 11.4699L12.7299 7.93991C13.0199 7.64991 13.4999 7.64991 13.7899 7.93991C14.0799 8.22991 14.0799 8.70991 13.7899 8.99991L10.7899 11.9999L13.7899 14.9999C14.0799 15.2899 14.0799 15.7699 13.7899 16.0599C13.6499 16.2099 13.4599 16.2799 13.2599 16.2799Z" />
</svg>

<?xml version="1.0" encoding="UTF-8"?>
<svg width="24" height="24" viewBox="0 0 24 24" xmlns="http://www.w3.org/2000/svg">
 <path d="m12 22.75c-5.93 0-10.75-4.82-10.75-10.75s4.82-10.75 10.75-10.75 10.75 4.82 10.75 10.75-4.82 10.75-10.75 10.75zm0-20c-5.1 0-9.25 4.15-9.25 9.25s4.15 9.25 9.25 9.25 9.25-4.15 9.25-9.25-4.15-9.25-9.25-9.25z"/>
 <path d="m13.26 16.28c-0.19 0-0.38-0.07-0.53-0.22l-3.53-3.53c-0.29-0.29-0.29-0.77 0-1.06l3.53-3.53c0.29-0.29 0.77-0.29 1.06 0s0.29 0.77 0 1.06l-3 3 3 3c0.29 0.29 0.29 0.77 0 1.06-0.14 0.15-0.33 0.22-0.53 0.22z"/>
</svg>
